X: 1
T: The Lark In The Morning
R: jig
M: 6/8
L: 1/8
K: Dmaj
AFA AdB | AFA D3 | DFA gfe | fed edB |
AFA AdB | AFA D2f | gfe fed | edA B/c/dB :|
|:Adf ~a3 | abf ~a3 | Adf ~a2 f | gfe fdB |
Adf ~a3 | abf ~a2f | gfe fed | edA B/c/dB :|


Tune 1578	Setting 24439

